Yaru++/status/symbolic/network-wired-symbolic.svg

<svg height="16" width="16.003" xmlns="http://www.w3.org/2000/svg">
  <g fill="#808080">
    <path d="m11.428 10c-.45.005-.78-.012-1.049.137a.673.673 0 0 0 -.299.357c-.059.157-.08.341-.08.576v1.858c0 .235.022.421.08.578a.668.668 0 0 0 .3.355c.268.148.598.134 1.048.139h2.146c.45-.005.778.01 1.047-.139a.668.668 0 0 0 .3-.355c.058-.157.08-.343.08-.578v-1.858c0-.235-.022-.42-.08-.576a.672.672 0 0 0 -.3-.357c-.269-.15-.597-.132-1.047-.137h-.002zm-5-9c-.45.005-.78-.012-1.049.137a.673.673 0 0 0 -.299.357c-.059.157-.08.341-.08.576v1.858c0 .235.022.421.08.578a.668.668 0 0 0 .3.355c.268.148.598.134 1.048.139h2.146c.45-.005.778.01 1.047-.139a.668.668 0 0 0 .3-.355c.058-.157.08-.343.08-.578v-1.858c0-.235-.022-.42-.08-.576a.672.672 0 0 0 -.3-.357c-.269-.15-.597-.132-1.047-.137h-.002zm-5 9c-.45.005-.78-.012-1.049.137a.673.673 0 0 0 -.299.357c-.059.157-.08.341-.08.576v1.858c0 .235.022.421.08.578a.668.668 0 0 0 .3.355c.268.148.598.134 1.048.139h2.146c.45-.005.778.01 1.047-.139a.668.668 0 0 0 .3-.355c.058-.157.08-.343.08-.578v-1.858c0-.235-.022-.42-.08-.576a.672.672 0 0 0 -.3-.357c-.269-.15-.597-.132-1.047-.137h-.002z"/>
    <g fill-rule="evenodd">
      <path d="m3.5 7c-.667 0-1.138.408-1.322.777-.185.37-.178.723-.178.723v2h1v-2s.007-.147.072-.277c.066-.131.095-.223.428-.223h8c.333 0 .362.092.428.223.065.13.072.277.072.277v2h1v-2s.007-.353-.178-.723a1.485 1.485 0 0 0 -1.322-.777z"/>
      <path d="m7.006 4.498-.006 3 1 .004.006-3z"/>
    </g>
  </g>
</svg>

<?xml version="1.0" encoding="UTF-8" standalone="no"?>
<svg
   xmlns:dc="http://purl.org/dc/elements/1.1/"
   xmlns:cc="http://creativecommons.org/ns#"
   xmlns:rdf="http://www.w3.org/1999/02/22-rdf-syntax-ns#"
   xmlns:svg="http://www.w3.org/2000/svg"
   xmlns="http://www.w3.org/2000/svg"
   xmlns:sodipodi="http://sodipodi.sourceforge.net/DTD/sodipodi-0.dtd"
   xmlns:inkscape="http://www.inkscape.org/namespaces/inkscape"
   height="16"
   width="16.003"
   version="1.1"
   id="svg10"
   sodipodi:docname="network-wired-symbolic.svg"
   inkscape:version="0.92.4 (5da689c313, 2019-01-14)">
  <metadata
     id="metadata16">
    <rdf:RDF>
      <cc:Work
         rdf:about="">
        <dc:format>image/svg+xml</dc:format>
        <dc:type
           rdf:resource="http://purl.org/dc/dcmitype/StillImage" />
      </cc:Work>
    </rdf:RDF>
  </metadata>
  <defs
     id="defs14" />
  <sodipodi:namedview
     pagecolor="#ffffff"
     bordercolor="#666666"
     borderopacity="1"
     objecttolerance="10"
     gridtolerance="10"
     guidetolerance="10"
     inkscape:pageopacity="0"
     inkscape:pageshadow="2"
     inkscape:window-width="854"
     inkscape:window-height="480"
     id="namedview12"
     showgrid="false"
     inkscape:zoom="14.75"
     inkscape:cx="8.0015001"
     inkscape:cy="8"
     inkscape:window-x="0"
     inkscape:window-y="27"
     inkscape:window-maximized="0"
     inkscape:current-layer="svg10" />
  <g
     font-weight="400"
     id="g8"
     transform="translate(0.5)"
     style="color:#000000;font-weight:400;font-family:sans-serif;white-space:normal;fill:#808080">
    <path
       d="m 11.428,10 c -0.45,0.005 -0.78,-0.012 -1.049,0.137 A 0.673,0.673 0 0 0 10.08,10.494 C 10.021,10.651 10,10.835 10,11.07 v 1.858 c 0,0.235 0.022,0.421 0.08,0.578 a 0.668,0.668 0 0 0 0.3,0.355 c 0.268,0.148 0.598,0.134 1.048,0.139 h 2.146 c 0.45,-0.005 0.778,0.01 1.047,-0.139 a 0.668,0.668 0 0 0 0.3,-0.355 c 0.058,-0.157 0.08,-0.343 0.08,-0.578 V 11.07 c 0,-0.235 -0.022,-0.42 -0.08,-0.576 a 0.672,0.672 0 0 0 -0.3,-0.357 C 14.352,9.987 14.024,10.005 13.574,10 h -0.002 z m -5,-9 C 5.978,1.005 5.648,0.988 5.379,1.137 A 0.673,0.673 0 0 0 5.08,1.494 C 5.021,1.651 5,1.835 5,2.07 v 1.858 c 0,0.235 0.022,0.421 0.08,0.578 a 0.668,0.668 0 0 0 0.3,0.355 C 5.648,5.009 5.978,4.995 6.428,5 H 8.574 C 9.024,4.995 9.352,5.01 9.621,4.861 a 0.668,0.668 0 0 0 0.3,-0.355 c 0.058,-0.157 0.08,-0.343 0.08,-0.578 V 2.07 c 0,-0.235 -0.022,-0.42 -0.08,-0.576 A 0.672,0.672 0 0 0 9.621,1.137 C 9.352,0.987 9.024,1.005 8.574,1 H 8.572 Z m -5,9 C 0.978,10.005 0.648,9.988 0.379,10.137 A 0.673,0.673 0 0 0 0.08,10.494 C 0.021,10.651 0,10.835 0,11.07 v 1.858 c 0,0.235 0.022,0.421 0.08,0.578 a 0.668,0.668 0 0 0 0.3,0.355 C 0.648,14.009 0.978,13.995 1.428,14 h 2.146 c 0.45,-0.005 0.778,0.01 1.047,-0.139 a 0.668,0.668 0 0 0 0.3,-0.355 c 0.058,-0.157 0.08,-0.343 0.08,-0.578 V 11.07 c 0,-0.235 -0.022,-0.42 -0.08,-0.576 a 0.672,0.672 0 0 0 -0.3,-0.357 C 4.352,9.987 4.024,10.005 3.574,10 H 3.572 Z"
       overflow="visible"
       style="line-height:normal;font-variant-ligatures:normal;font-variant-position:normal;font-variant-caps:normal;font-variant-numeric:normal;font-variant-alternates:normal;font-feature-settings:normal;text-indent:0;text-align:start;text-decoration:none;text-decoration-line:none;text-decoration-style:solid;text-decoration-color:#000000;text-transform:none;text-orientation:mixed;shape-padding:0;overflow:visible;isolation:auto;mix-blend-mode:normal;marker:none"
       id="path2"
       inkscape:connector-curvature="0" />
    <path
       d="M 3.5,7 C 2.833,7 2.362,7.408 2.178,7.777 1.993,8.147 2,8.5 2,8.5 v 2 h 1 v -2 C 3,8.5 3.007,8.353 3.072,8.223 3.138,8.092 3.167,8 3.5,8 h 8 c 0.333,0 0.362,0.092 0.428,0.223 C 11.993,8.353 12,8.5 12,8.5 v 2 h 1 v -2 c 0,0 0.007,-0.353 -0.178,-0.723 A 1.485,1.485 0 0 0 11.5,7 Z"
       overflow="visible"
       style="line-height:normal;font-variant-ligatures:normal;font-variant-position:normal;font-variant-caps:normal;font-variant-numeric:normal;font-variant-alternates:normal;font-feature-settings:normal;text-indent:0;text-align:start;text-decoration:none;text-decoration-line:none;text-decoration-style:solid;text-decoration-color:#000000;text-transform:none;text-orientation:mixed;shape-padding:0;overflow:visible;isolation:auto;mix-blend-mode:normal;fill-rule:evenodd"
       id="path4"
       inkscape:connector-curvature="0" />
    <path
       d="m 7.006,4.498 -0.006,3 1,0.004 0.006,-3 z"
       overflow="visible"
       style="line-height:normal;font-variant-ligatures:normal;font-variant-position:normal;font-variant-caps:normal;font-variant-numeric:normal;font-variant-alternates:normal;font-feature-settings:normal;text-indent:0;text-align:start;text-decoration:none;text-decoration-line:none;text-decoration-style:solid;text-decoration-color:#000000;text-transform:none;text-orientation:mixed;shape-padding:0;overflow:visible;isolation:auto;mix-blend-mode:normal;fill-rule:evenodd"
       id="path6"
       inkscape:connector-curvature="0" />
  </g>
</svg>
